icons/lines/shopping-cart.svg

<svg xmlns="http://www.w3.org/2000/svg" width="24" height="24" viewBox="0 0 24 24" fill="none" stroke="currentColor" stroke-width="2" stroke-linecap="round" stroke-linejoin="round" >
  <path d="M2 2H3.74001C4.82001 2 5.67 2.93 5.58 4L4.75 13.96C4.61 15.59 5.89999 16.99 7.53999 16.99H18.19C19.63 16.99 20.89 15.81 21 14.38L21.54 6.88C21.66 5.22 20.4 3.87 18.73 3.87H5.82001" stroke-miterlimit="10"/>
  <path d="M16.25 22C16.9404 22 17.5 21.4404 17.5 20.75C17.5 20.0596 16.9404 19.5 16.25 19.5C15.5596 19.5 15 20.0596 15 20.75C15 21.4404 15.5596 22 16.25 22Z" stroke-miterlimit="10"/>
  <path d="M8.25 22C8.94036 22 9.5 21.4404 9.5 20.75C9.5 20.0596 8.94036 19.5 8.25 19.5C7.55964 19.5 7 20.0596 7 20.75C7 21.4404 7.55964 22 8.25 22Z" stroke-miterlimit="10"/>
  <path d="M9 8H21" stroke-miterlimit="10"/>
  </svg>

<svg xmlns="http://www.w3.org/2000/svg" width="24" height="24" viewBox="0 0 24 24" fill="none" stroke="currentColor" stroke-width="2" stroke-linecap="round" stroke-linejoin="round">
  <path d="M2 2h1.74a1.85 1.85 0 0 1 1.84 2l-.83 9.96a2.796 2.796 0 0 0 2.79 3.03h10.65c1.44 0 2.7-1.18 2.81-2.61l.54-7.5c.12-1.66-1.14-3.01-2.81-3.01H5.82" />
  <path d="M9 8h12" />
  <circle cx="16.25" cy="20.75" r="1.25" />
  <circle cx="8.25" cy="20.75" r="1.25" />
</svg>
